packages/kaspersky-hexa-ui-icons/src/iconsSVGs/24/StatusOKSolid.svg

<svg width="24" height="24" viewBox="0 0 24 24" fill="none" xmlns="http://www.w3.org/2000/svg">
<path fill-rule="evenodd" clip-rule="evenodd" d="M12 22C17.5228 22 22 17.5228 22 12C22 6.47715 17.5228 2 12 2C6.47715 2 2 6.47715 2 12C2 17.5228 6.47715 22 12 22ZM16.7071 10.7071C17.0976 10.3166 17.0976 9.68342 16.7071 9.29289C16.3166 8.90237 15.6834 8.90237 15.2929 9.29289L11 13.5858L8.70711 11.2929C8.31658 10.9024 7.68342 10.9024 7.29289 11.2929C6.90237 11.6834 6.90237 12.3166 7.29289 12.7071L10.2929 15.7071C10.6834 16.0976 11.3166 16.0976 11.7071 15.7071L16.7071 10.7071Z" fill="black"/>
</svg>

<svg xmlns="http://www.w3.org/2000/svg" width="24" height="24" fill="none" viewBox="0 0 24 24"><path fill="#000" fill-rule="evenodd" d="M12 22c5.5228 0 10-4.4772 10-10S17.5228 2 12 2 2 6.4772 2 12s4.4772 10 10 10m4.7071-11.2929c.3905-.3905.3905-1.0237 0-1.4142s-1.0237-.3905-1.4142 0L11 13.5858l-2.2929-2.2929c-.3905-.3905-1.0237-.3905-1.4142 0s-.3905 1.0237 0 1.4142l3 3c.3905.3905 1.0237.3905 1.4142 0z"/></svg>
